public/images/Footer/shopify-experts.svg

<svg width="148" height="26" viewBox="0 0 148 26" fill="none" xmlns="http://www.w3.org/2000/svg">
<g clip-path="url(#clip0)">
<path d="M8.33961 8.4261C8.31076 8.4261 8.31076 8.4261 8.2819 8.4261C8.05105 8.39724 7.82019 8.16639 7.82019 7.93554C7.82019 7.70468 7.67591 2.19303 10.9079 0.952184C11.7159 0.634759 12.4661 0.72133 13.101 1.15418C13.8513 1.70246 14.4284 2.79902 14.7747 4.38615C15.0055 5.51156 15.0633 6.46384 15.0633 6.52155C15.0633 6.75241 14.8901 6.92555 14.6304 6.89669C14.3995 6.86783 14.1687 6.63698 14.1687 6.40612C14.1398 5.39614 13.7936 2.65474 12.6681 1.8756C12.3219 1.61589 11.889 1.58703 11.3407 1.81789C8.57047 2.88559 8.71475 8.05096 8.71475 8.10868C8.71475 8.28182 8.54161 8.4261 8.33961 8.4261Z" fill="#9DBD32"/>
<path d="M15.2364 3.02982L2.7414 6.89664C2.7414 6.89664 2.19312 7.04092 2.07769 7.18521C1.96226 7.35835 1.93341 7.7912 1.93341 7.7912L0 22.6813L14.4861 25.3939L15.5827 3.00097C15.4384 2.97211 15.2653 3.00097 15.2364 3.02982Z" fill="#9DBD32"/>
<path d="M19.5361 4.93438C19.5361 4.93438 19.5072 4.81896 19.4495 4.7901C19.3918 4.76124 19.3052 4.73239 19.3052 4.73239L17.2564 4.5881L15.7559 3.08755C15.6981 3.02983 15.6404 3.02983 15.5539 3.00098L14.4862 25.3939L22.3352 23.6913L19.5361 4.93438Z" fill="#608D2F"/>
<path d="M10.0711 15.4383C9.84024 15.1497 9.58052 14.89 9.32081 14.6592C9.0611 14.4283 8.77253 14.2263 8.48397 14.0532C8.28197 13.9377 8.10883 13.8223 7.96454 13.7069C7.82026 13.5915 7.70483 13.476 7.61826 13.3606C7.53169 13.2452 7.44512 13.1297 7.41626 13.0143C7.35855 12.8989 7.35855 12.7835 7.35855 12.668C7.35855 12.4949 7.41626 12.3506 7.47398 12.2063C7.53169 12.062 7.61826 11.9466 7.73369 11.86C7.84912 11.7735 7.9934 11.6869 8.13768 11.6292C8.31082 11.5715 8.48397 11.5426 8.68596 11.5138C8.91682 11.5138 9.11882 11.5138 9.32081 11.5426C9.52281 11.5715 9.72481 11.6003 9.89795 11.658C10.0711 11.7158 10.2442 11.7446 10.4174 11.8023C10.5617 11.86 10.7059 11.9178 10.8214 11.9755L11.7736 9.08979C11.6294 9.00322 11.4562 8.9455 11.2542 8.88779C11.0522 8.83007 10.8214 8.77236 10.5905 8.7435C10.3597 8.71465 10.0711 8.68579 9.81138 8.68579C9.52281 8.68579 9.23424 8.71465 8.94567 8.7435C8.28197 8.83007 7.70483 9.00322 7.18541 9.26293C6.66599 9.52264 6.23313 9.84006 5.88685 10.2441C5.54057 10.6192 5.252 11.0809 5.05 11.5715C4.84801 12.062 4.73258 12.6103 4.70372 13.1875C4.67486 13.5337 4.73258 13.8512 4.79029 14.1686C4.87686 14.4572 4.99229 14.7457 5.13657 15.0054C5.28086 15.2651 5.48286 15.496 5.68485 15.7269C5.88685 15.9577 6.14656 16.1597 6.37742 16.3329C6.57942 16.4771 6.75256 16.6214 6.89684 16.7657C7.04112 16.91 7.15655 17.0254 7.24312 17.1697C7.32969 17.314 7.38741 17.4294 7.44512 17.5737C7.47398 17.718 7.50283 17.8623 7.50283 18.0065C7.50283 18.1508 7.47398 18.2951 7.41626 18.4105C7.35855 18.526 7.27198 18.6414 7.15655 18.728C7.04112 18.8145 6.9257 18.8723 6.78141 18.9011C6.63713 18.93 6.46399 18.93 6.26199 18.9011C6.03114 18.8723 5.82914 18.8145 5.62714 18.728C5.42514 18.6414 5.22314 18.5548 5.02115 18.4394C4.81915 18.324 4.64601 18.2085 4.50172 18.122C4.35744 18.0065 4.21316 17.92 4.09773 17.8045L3.43402 19.9977C3.54945 20.142 3.69373 20.2862 3.83802 20.4017C4.01116 20.5459 4.1843 20.6614 4.41515 20.8057C4.61715 20.9211 4.87686 21.0365 5.10772 21.1519C5.36743 21.2674 5.62714 21.3539 5.91571 21.4117C6.5217 21.5559 7.09884 21.5848 7.64712 21.4982C8.1954 21.4117 8.71482 21.2385 9.14767 20.9499C9.60938 20.6325 9.98452 20.2285 10.2442 19.6802C10.5328 19.132 10.6771 18.4683 10.7059 17.718C10.7348 17.2563 10.6482 16.8234 10.5328 16.4483C10.4751 16.102 10.3019 15.7557 10.0711 15.4383Z" fill="white"/>
<path d="M5.30962 7.67586C5.28076 7.67586 5.28076 7.67586 5.2519 7.67586C5.02105 7.647 4.84791 7.41615 4.87677 7.18529C4.90562 6.95444 5.71361 1.44278 9.17643 0.20194C10.0421 -0.115485 10.7636 -0.0289146 11.3407 0.403938C12.0044 0.952217 12.3795 2.01992 12.4373 3.60705C12.4661 4.73246 12.3507 5.68474 12.3507 5.74245C12.3218 5.9733 12.091 6.14645 11.8601 6.11759C11.6293 6.08873 11.4561 5.85788 11.485 5.62702C11.6293 4.61703 11.7735 1.87564 10.7924 1.0965C10.475 0.83679 10.0421 0.807933 9.49386 1.03879C6.55046 2.10649 5.77133 7.27186 5.74247 7.32958C5.68476 7.53157 5.51162 7.67586 5.30962 7.67586Z" fill="#9DBD32"/>
<path d="M31.4539 14.4571C30.6747 14.0243 30.2707 13.678 30.2707 13.1874C30.2707 12.5526 30.819 12.1486 31.7136 12.1486C32.5216 12.1486 33.2141 12.3794 33.647 12.5814L34.3396 10.3883C33.849 10.0998 32.9256 9.8689 31.7424 9.8689C29.0299 9.8689 27.1831 11.3983 27.1831 13.5914C27.1831 14.8323 28.0488 15.7557 29.203 16.4194C30.1553 16.9677 30.4727 17.3428 30.4727 17.8911C30.4727 18.4682 30.011 18.9299 29.1453 18.9299C28.1931 18.9588 27.1831 18.5548 26.6348 18.2662L25.8557 20.4882C26.4328 20.8922 27.6159 21.2385 28.8856 21.2385C31.6559 21.2673 33.647 19.8822 33.647 17.4294C33.6759 16.102 32.6659 15.1497 31.4539 14.4571Z" fill="white"/>
<path d="M42.4773 9.86895C41.121 9.86895 40.0533 10.5038 39.2164 11.5138L39.1587 11.4849L40.3419 5.30957H37.2542L34.2531 21.0654H37.3408L38.3796 15.6692C38.7836 13.6492 39.8224 12.3795 40.8036 12.3795C41.4961 12.3795 41.7558 12.8412 41.7558 13.5049C41.7558 13.9378 41.6981 14.4572 41.6116 14.8612L40.4573 21.0365H43.5738L44.7858 14.6592C44.9301 13.9955 45.0167 13.1875 45.0167 12.6392C45.0167 10.9078 44.0932 9.86895 42.4773 9.86895Z" fill="white"/>
<path d="M52 9.8689C48.2774 9.8689 45.8246 13.2163 45.8246 16.9388C45.8246 19.3339 47.2963 21.2385 50.0666 21.2385C53.7025 21.2385 56.1554 17.9777 56.1554 14.1686C56.1554 11.9754 54.8568 9.8689 52 9.8689ZM50.4706 18.9011C49.4317 18.9011 48.97 18.0065 48.97 16.8811C48.97 15.1208 49.8934 12.2352 51.5671 12.2352C52.6637 12.2352 53.01 13.1874 53.01 14.082C53.01 15.9865 52.0865 18.9011 50.4706 18.9011Z" fill="white"/>
<path d="M64.0621 9.8689C62.8213 9.8689 61.6382 10.5326 60.8013 11.6869H60.7436L60.9167 10.042H58.2042C58.0599 11.1675 57.8291 12.87 57.5693 14.1397L55.4339 25.4227H58.5216L59.3585 20.8634H59.4162C59.7625 21.0942 60.455 21.2673 61.2342 21.2673C64.8413 21.2673 67.2364 17.5448 67.2364 13.7934C67.2364 11.7157 66.313 9.8689 64.0621 9.8689ZM61.0899 18.9299C60.5416 18.9299 60.1376 18.7568 59.8202 18.4971L60.3396 15.6114C60.6859 13.678 61.6959 12.4083 62.7636 12.4083C63.7159 12.4083 64.0044 13.274 64.0044 14.1109C64.0044 16.102 62.8213 18.9299 61.0899 18.9299Z" fill="white"/>
<path d="M71.6226 5.42505C70.6415 5.42505 69.8624 6.20418 69.8624 7.21417C69.8624 8.13759 70.4395 8.74358 71.3052 8.74358H71.3629C72.3152 8.74358 73.152 8.10873 73.1809 6.95446C73.1809 6.08876 72.5749 5.42505 71.6226 5.42505Z" fill="white"/>
<path d="M67.323 21.0366H70.4106L72.4883 10.0999H69.4007L67.323 21.0366Z" fill="white"/>
<path d="M80.3373 10.0709H78.2019L78.3174 9.55152C78.4905 8.51267 79.1254 7.5604 80.1353 7.5604C80.5393 7.5604 80.8568 7.61811 81.1165 7.70468L81.7225 5.28071C81.3762 5.13642 80.799 5.021 80.0488 5.021C78.9522 5.021 77.8556 5.33842 77.0188 6.05984C75.9799 6.9544 75.4894 8.25296 75.2297 9.55152L75.1431 10.0709H73.7003L73.2674 12.4083H74.7102L73.0654 21.0365H76.1531L77.7979 12.4083H79.9333L80.3373 10.0709Z" fill="white"/>
<path d="M87.7537 10.0999L85.878 15.0055C85.4452 16.1886 85.2143 16.8812 84.9546 17.6315H84.8969C84.8392 16.9101 84.7526 16.1309 84.6372 15.0344L84.1466 10.1287H80.9146L82.7615 20.1709C82.8192 20.4017 82.7903 20.5172 82.7038 20.6903C82.3575 21.3829 81.7515 22.0466 81.0301 22.5371C80.4529 22.97 79.7892 23.2297 79.2986 23.4028L80.1355 26.0288C80.7704 25.8845 82.0689 25.394 83.1655 24.3551C84.5795 23.0277 85.878 21.0077 87.2054 18.2375L90.9857 10.1576H87.7537V10.0999Z" fill="white"/>
<path d="M113.292 11.8312C113.869 11.4561 114.302 10.9655 114.85 10.6481C116.553 9.72467 118.919 10.0132 119.294 12.6969C119.669 15.5249 118.775 17.9489 116.582 19.8246C115.37 20.8634 113.927 21.0943 112.397 20.6325C111.878 20.4883 111.763 20.6037 111.705 21.0943C111.532 22.1331 111.272 23.172 111.128 24.2108C111.041 24.7014 110.839 24.8456 110.406 24.7879C110.262 24.7591 110.118 24.7591 109.973 24.7879C109.425 24.8745 109.31 24.6436 109.396 24.1242C110.233 19.7668 111.157 15.4383 111.82 11.0521C111.849 10.8212 111.734 10.4461 112.08 10.4172C112.484 10.3595 112.917 10.3884 113.35 10.4461C113.523 10.4749 113.436 10.6769 113.407 10.8212C113.407 11.1387 113.35 11.4849 113.292 11.8312ZM117.592 14.1109C117.563 13.0721 117.534 12.1775 116.553 11.7446C115.774 11.4272 114.85 11.8024 114.1 12.6969C113.667 13.2163 113.321 13.8223 113.09 14.4572C112.599 15.8135 112.513 17.2563 112.195 18.6414C112.109 19.0166 112.34 19.1609 112.628 19.2474C113.667 19.6226 114.619 19.5071 115.456 18.7569C116.899 17.4872 117.447 15.7846 117.592 14.1109Z" fill="white"/>
<path d="M97.0744 20.8057C94.7947 20.8057 93.4096 19.334 93.4385 16.8235C93.4673 14.89 94.1022 13.1298 95.4296 11.6869C96.3242 10.7058 97.4207 10.1575 98.8058 10.1864C100.076 10.2441 100.97 10.7924 101.316 11.8601C101.692 13.0432 101.288 14.2841 100.335 15.0055C99.4407 15.6403 98.4307 15.8712 97.363 16.0155C96.8147 16.0732 96.2376 16.102 95.6893 16.1309C95.4296 16.1309 95.2276 16.1597 95.2276 16.4772C95.1122 18.4394 96.0067 19.6514 98.1133 19.334C98.5173 19.2763 98.9213 19.0743 99.3253 18.9877C99.5273 18.9589 99.8447 18.4972 99.9601 19.0454C100.047 19.4206 100.393 19.9111 99.7581 20.1997C99.181 20.546 97.9401 20.8057 97.0744 20.8057ZM96.3242 14.7746C96.7281 14.7169 97.1033 14.6592 97.5073 14.6303C97.9401 14.5726 98.3441 14.4572 98.7193 14.2841C99.6427 13.8801 100.076 12.9855 99.7004 12.2352C99.383 11.5427 98.4019 11.3407 97.5361 11.8024C96.6416 12.2352 96.1222 13.0144 95.747 13.9089C95.3719 14.7169 95.4007 14.7746 96.3242 14.7746Z" fill="white"/>
<path d="M120.362 16.6503C120.419 14.6592 121.141 12.8124 122.699 11.3407C123.709 10.3884 124.892 10.0421 126.277 10.2153C127.259 10.3307 128.067 10.9944 128.269 11.9755C128.528 13.1009 128.326 14.1398 127.374 14.9189C126.479 15.6403 125.412 15.8712 124.286 16.0155C123.738 16.102 123.161 16.1309 122.613 16.1309C122.209 16.1309 122.093 16.2752 122.093 16.6503C122.035 18.7569 123.219 19.7091 125.296 19.2763C125.585 19.2186 125.845 19.1032 126.104 19.0743C126.364 19.0454 126.71 18.4972 126.883 19.1032C126.999 19.536 127.316 20.0843 126.508 20.344C125.527 20.6614 124.575 20.8923 123.536 20.8057C121.805 20.6614 120.65 19.5071 120.419 17.6892C120.362 17.4006 120.391 17.0832 120.362 16.6503ZM123.19 14.7746C124.229 14.6881 125.21 14.6303 126.047 14.0244C126.653 13.5915 126.855 12.8412 126.566 12.2352C126.335 11.7447 125.7 11.485 124.979 11.6292C124.633 11.687 124.315 11.8312 124.027 12.0332C123.219 12.6104 122.757 13.4472 122.411 14.3706C122.295 14.6881 122.411 14.8035 122.728 14.7746C122.901 14.7458 123.074 14.7746 123.19 14.7746Z" fill="white"/>
<path d="M106.02 14.1399C106.77 13.1299 107.521 12.1776 108.184 11.1388C108.588 10.5039 109.079 10.2442 109.8 10.3596C110.06 10.3885 110.32 10.3596 110.637 10.3596C110.493 10.7925 110.204 11.0522 109.973 11.3119C109.021 12.5239 108.04 13.7647 107.059 14.9479C106.742 15.323 106.742 15.6116 106.915 16.0156C107.549 17.5161 108.155 19.0455 108.79 20.6615C108.213 20.6615 107.723 20.6615 107.232 20.6615C106.886 20.6615 106.828 20.4018 106.742 20.171C106.309 19.0167 105.876 17.8913 105.443 16.737C105.241 16.6793 105.183 16.8236 105.126 16.939C104.462 18.0933 103.596 19.0744 102.846 20.171C102.586 20.5461 102.298 20.6904 101.865 20.6615C101.49 20.6327 101.086 20.6615 100.508 20.6615C101.288 19.6804 101.951 18.8435 102.644 17.9778C103.221 17.2276 103.798 16.5061 104.404 15.7847C104.664 15.4962 104.664 15.2364 104.52 14.8902C103.942 13.5916 103.423 12.2931 102.875 10.9945C102.702 10.5616 102.615 10.3308 103.25 10.3596C104.462 10.3885 104.462 10.3596 104.924 11.5139C105.241 12.3796 105.558 13.2165 105.876 14.0822C105.934 14.0822 105.962 14.111 106.02 14.1399Z" fill="white"/>
<path d="M139.754 8.05103C139.783 8.68588 139.552 9.26301 139.465 9.84015C139.407 10.2441 139.494 10.4173 139.927 10.3596C140.215 10.3307 140.504 10.3019 140.764 10.3596C141.052 10.4173 141.543 10.0421 141.572 10.6481C141.629 11.4273 141.37 11.7158 140.706 11.7158C139.061 11.7158 139.061 11.7158 138.773 13.303C138.513 14.8035 138.224 16.3041 137.965 17.8046C137.763 18.9878 138.051 19.3052 139.205 19.2763C139.523 19.2763 139.552 19.3629 139.552 19.6226C139.552 20.5749 139.436 20.7192 138.484 20.748C136.753 20.8346 136.002 20.0266 136.175 18.3241C136.377 16.3041 136.897 14.3418 137.243 12.3795C137.33 11.8601 137.301 11.6581 136.724 11.687C136.464 11.7158 135.945 11.889 136.089 11.283C136.175 10.879 136.002 10.1864 136.81 10.3019C137.416 10.3884 137.734 10.2153 137.82 9.52272C137.965 8.42616 138.167 8.31074 139.754 8.05103Z" fill="white"/>
<path d="M145.843 10.1575C146.189 10.1863 146.535 10.2152 146.881 10.2729C147.805 10.4749 147.805 10.5615 147.516 11.456C147.372 11.8889 147.17 11.8889 146.795 11.7446C146.304 11.5426 145.756 11.456 145.208 11.6003C144.631 11.7446 144.227 12.062 144.053 12.6103C143.851 13.2163 144.053 13.7357 144.486 14.1686C144.746 14.4283 145.063 14.6303 145.381 14.8323C146.593 15.6691 147.228 16.7657 146.91 18.2662C146.622 19.6225 145.554 20.5171 143.996 20.7479C143.101 20.8922 142.235 20.7479 141.37 20.4016C140.648 20.1131 141.081 19.7091 141.168 19.3339C141.283 18.8722 141.543 18.9011 141.889 19.0742C142.437 19.3628 143.043 19.4494 143.678 19.3917C144.371 19.3051 144.861 18.9877 145.121 18.324C145.352 17.6602 145.237 17.0543 144.775 16.5637C144.544 16.3328 144.284 16.1308 144.025 15.9288C142.495 14.89 141.976 13.7646 142.38 12.3794C142.813 10.9943 144.082 10.1863 145.843 10.1575Z" fill="white"/>
<path d="M129.711 20.6614C128.73 20.6614 128.73 20.6614 128.903 19.7668C129.394 17.1408 129.971 14.5149 130.346 11.86C130.375 11.5715 130.433 11.254 130.433 10.9366C130.462 10.5326 130.577 10.3018 131.068 10.3306C132.078 10.3595 132.135 10.3883 131.933 11.3983C131.905 11.5715 131.789 11.7446 131.933 11.8312C132.164 11.9755 132.251 11.7157 132.366 11.5715C132.972 10.7635 133.665 10.1575 134.761 10.1575C135.165 10.1575 135.339 10.244 135.165 10.6769C135.108 10.8789 135.05 11.0809 135.05 11.3117C135.021 11.7446 134.848 11.8889 134.386 11.9177C133.636 11.9466 133.088 12.4083 132.655 12.9854C131.703 14.1974 131.443 15.6691 131.183 17.112C131.01 18.0065 130.808 18.9011 130.693 19.8245C130.548 20.4882 130.317 20.8345 129.711 20.6614Z" fill="white"/>
</g>
<defs>
<clipPath id="clip0">
<rect width="147.689" height="26" fill="white"/>
</clipPath>
</defs>
</svg>

<svg xmlns="http://www.w3.org/2000/svg" width="148" height="26" fill="none" xmlns:v="https://vecta.io/nano"><g clip-path="url(#A)"><g fill="#9dbd32"><path d="M8.34 8.426h-.058c-.231-.029-.462-.26-.462-.491S7.676 2.193 10.908.952c.808-.317 1.558-.231 2.193.202.75.548 1.327 1.645 1.674 3.232.231 1.125.289 2.078.289 2.135 0 .231-.173.404-.433.375-.231-.029-.462-.26-.462-.491-.029-1.01-.375-3.751-1.501-4.531-.346-.26-.779-.289-1.327-.058-2.77 1.068-2.626 6.233-2.626 6.291 0 .173-.173.317-.375.317z"/><path d="M15.236 3.03L2.741 6.897s-.548.144-.664.289c-.115.173-.144.606-.144.606L0 22.681l14.486 2.713 1.097-22.393c-.144-.029-.317 0-.346.029z"/></g><path d="M19.536 4.934s-.029-.115-.087-.144-.144-.058-.144-.058l-2.049-.144-1.5-1.501c-.058-.058-.116-.058-.202-.087l-1.068 22.393 7.849-1.703-2.799-18.757z" fill="#608d2f"/><path d="M10.071 15.438c-.231-.289-.491-.548-.75-.779s-.548-.433-.837-.606a4.06 4.06 0 0 1-.519-.346 1.96 1.96 0 0 1-.346-.346c-.087-.115-.173-.231-.202-.346-.058-.115-.058-.231-.058-.346 0-.173.058-.317.115-.462s.144-.26.26-.346.26-.173.404-.231c.173-.058.346-.087.548-.115l.635.029c.202.029.404.058.577.115s.346.087.519.144l.404.173.952-2.886c-.144-.087-.317-.144-.519-.202a4.48 4.48 0 0 0-.664-.144c-.231-.029-.519-.058-.779-.058-.289 0-.577.029-.866.058-.664.087-1.241.26-1.76.519s-.952.577-1.299.981c-.346.375-.635.837-.837 1.327a4.89 4.89 0 0 0-.346 1.616c-.029.346.029.664.087.981a4.26 4.26 0 0 0 .346.837c.144.26.346.491.548.722s.462.433.693.606c.202.144.375.289.519.433s.26.26.346.404a2.64 2.64 0 0 1 .202.404c.029.144.058.289.058.433a.92.92 0 0 1-.087.404.9.9 0 0 1-.26.318c-.115.086-.231.144-.375.173s-.317.029-.519 0c-.231-.029-.433-.087-.635-.173l-.606-.289-.519-.317c-.144-.116-.289-.202-.404-.317l-.664 2.193c.115.144.26.289.404.404.173.144.346.26.577.404.202.115.462.231.693.346.26.115.519.202.808.26.606.144 1.183.173 1.731.087s1.068-.26 1.501-.548c.462-.317.837-.721 1.097-1.27.289-.548.433-1.212.462-1.962.029-.462-.058-.895-.173-1.27-.058-.346-.231-.693-.462-1.01z" fill="#fff"/><path d="M5.31 7.676h-.058a.45.45 0 0 1-.375-.491c.029-.231.837-5.743 4.3-6.983.866-.317 1.587-.231 2.164.202.664.548 1.039 1.616 1.097 3.203.029 1.125-.087 2.078-.087 2.135a.45.45 0 0 1-.491.375.45.45 0 0 1-.375-.491c.144-1.01.289-3.751-.693-4.531-.317-.26-.75-.289-1.299-.058C6.55 2.106 5.771 7.272 5.742 7.33a.46.46 0 0 1-.433.346z" fill="#9dbd32"/><g fill="#fff"><path d="M31.454 14.457c-.779-.433-1.183-.779-1.183-1.27 0-.635.548-1.039 1.443-1.039.808 0 1.501.231 1.933.433l.693-2.193c-.491-.288-1.414-.519-2.597-.519-2.712 0-4.559 1.529-4.559 3.723 0 1.241.866 2.164 2.02 2.828.952.548 1.27.923 1.27 1.472 0 .577-.462 1.039-1.327 1.039-.952.029-1.962-.375-2.511-.664l-.779 2.222c.577.404 1.76.75 3.03.75 2.77.029 4.761-1.356 4.761-3.809.029-1.327-.981-2.28-2.193-2.972zm11.023-4.588c-1.356 0-2.424.635-3.261 1.645l-.058-.029 1.183-6.175h-3.088l-3.001 15.756h3.088l1.039-5.396c.404-2.02 1.443-3.29 2.424-3.29.692 0 .952.462.952 1.125a6.98 6.98 0 0 1-.144 1.356l-1.154 6.175h3.117l1.212-6.377a10.58 10.58 0 0 0 .231-2.02c0-1.731-.923-2.77-2.539-2.77zm9.523 0c-3.723 0-6.175 3.347-6.175 7.07 0 2.395 1.472 4.3 4.242 4.3 3.636 0 6.089-3.261 6.089-7.07 0-2.193-1.299-4.3-4.155-4.3zm-1.529 9.032c-1.039 0-1.501-.895-1.501-2.02 0-1.76.923-4.646 2.597-4.646 1.097 0 1.443.952 1.443 1.847 0 1.904-.923 4.819-2.539 4.819zm13.591-9.032c-1.241 0-2.424.664-3.261 1.818h-.058l.173-1.645h-2.712l-.635 4.098-2.135 11.283h3.088l.837-4.559h.058c.346.231 1.039.404 1.818.404 3.607 0 6.002-3.722 6.002-7.474 0-2.078-.923-3.924-3.174-3.924zM61.09 18.93c-.548 0-.952-.173-1.27-.433l.519-2.886c.346-1.933 1.356-3.203 2.424-3.203.952 0 1.241.866 1.241 1.703 0 1.991-1.183 4.819-2.915 4.819zM71.623 5.425c-.981 0-1.76.779-1.76 1.789 0 .923.577 1.529 1.443 1.529h.058c.952 0 1.789-.635 1.818-1.789 0-.866-.606-1.529-1.558-1.529zm-4.3 15.612h3.088L72.488 10.1H69.4l-2.078 10.937zm13.014-10.966h-2.135l.116-.519c.173-1.039.808-1.991 1.818-1.991.404 0 .722.058.981.144l.606-2.424c-.346-.144-.923-.26-1.674-.26-1.097 0-2.193.317-3.03 1.039-1.039.895-1.529 2.193-1.789 3.492l-.087.519H73.7l-.433 2.337h1.443l-1.645 8.628h3.088l1.645-8.628h2.135l.404-2.337zm7.417.029l-1.876 4.906-.923 2.626h-.058l-.26-2.597-.491-4.906h-3.232l1.847 10.042a.63.63 0 0 1-.058.519c-.346.693-.952 1.356-1.674 1.847-.577.433-1.241.693-1.732.866l.837 2.626c.635-.144 1.933-.635 3.03-1.674 1.414-1.327 2.713-3.347 4.04-6.118l3.78-8.08h-3.232V10.1zm25.538 1.731c.577-.375 1.01-.866 1.558-1.183 1.703-.923 4.069-.635 4.444 2.049.375 2.828-.519 5.252-2.712 7.128-1.212 1.039-2.655 1.27-4.185.808-.519-.144-.634-.029-.692.462l-.577 3.116c-.087.491-.289.635-.722.577a1.09 1.09 0 0 0-.433 0c-.548.087-.663-.144-.577-.664.837-4.357 1.761-8.686 2.424-13.072.029-.231-.086-.606.26-.635.404-.058.837-.029 1.27.029.173.029.086.231.057.375 0 .318-.057.664-.115 1.01zm4.3 2.28c-.029-1.039-.058-1.933-1.039-2.366-.779-.317-1.703.058-2.453.952-.433.519-.779 1.125-1.01 1.76-.491 1.356-.577 2.799-.895 4.184-.086.375.145.52.433.606 1.039.375 1.991.26 2.828-.49 1.443-1.27 1.991-2.972 2.136-4.646zm-20.518 6.695c-2.28 0-3.665-1.472-3.636-3.982.029-1.933.664-3.694 1.991-5.137.895-.981 1.991-1.529 3.376-1.5 1.27.058 2.164.606 2.51 1.674.376 1.183-.028 2.424-.981 3.145-.894.635-1.904.866-2.972 1.01l-1.674.115c-.26 0-.462.029-.462.346-.115 1.962.779 3.174 2.886 2.857.404-.058.808-.26 1.212-.346.202-.029.519-.491.635.058.087.375.433.866-.202 1.154-.577.346-1.818.606-2.684.606zm-.75-6.031l1.183-.144a4.2 4.2 0 0 0 1.212-.346c.923-.404 1.357-1.299.981-2.049-.317-.693-1.299-.895-2.164-.433-.895.433-1.414 1.212-1.789 2.106-.375.808-.346.866.577.866zm24.038 1.875c.057-1.991.779-3.838 2.337-5.31 1.01-.952 2.193-1.299 3.578-1.125.982.115 1.79.779 1.992 1.76.259 1.125.057 2.164-.895 2.943-.895.721-1.962.952-3.088 1.097a10.88 10.88 0 0 1-1.673.115c-.404 0-.52.144-.52.519-.058 2.107 1.126 3.059 3.203 2.626.289-.058.549-.173.808-.202s.606-.577.779.029c.116.433.433.981-.375 1.241-.981.317-1.933.548-2.972.462-1.731-.144-2.886-1.299-3.117-3.117-.057-.289-.028-.606-.057-1.039zm2.828-1.876c1.039-.086 2.02-.144 2.857-.75.606-.433.808-1.183.519-1.789-.231-.491-.866-.75-1.587-.606-.346.058-.664.202-.952.404-.808.577-1.27 1.414-1.616 2.337-.116.318 0 .433.317.404.173-.029.346 0 .462 0zm-17.17-.634l2.164-3.001c.404-.635.895-.895 1.616-.779.26.029.52 0 .837 0-.144.433-.433.693-.664.952l-2.914 3.636c-.317.375-.317.664-.144 1.068l1.875 4.646h-1.558c-.346 0-.404-.26-.49-.491l-1.299-3.434c-.202-.058-.26.087-.317.202-.664 1.154-1.53 2.135-2.28 3.232-.26.375-.548.519-.981.491-.375-.029-.779 0-1.357 0l2.136-2.684 1.76-2.193c.26-.289.26-.548.116-.895l-1.645-3.896c-.173-.433-.26-.664.375-.635 1.212.029 1.212 0 1.674 1.154l.952 2.568c.058 0 .086.029.144.058zm33.734-6.089c.029.635-.202 1.212-.289 1.789-.058.404.029.577.462.519.288-.029.577-.058.837 0 .288.058.779-.318.808.288.057.779-.202 1.068-.866 1.068-1.645 0-1.645 0-1.933 1.587l-.808 4.502c-.202 1.183.086 1.501 1.24 1.472.318 0 .347.087.347.346 0 .952-.116 1.097-1.068 1.125-1.731.087-2.482-.721-2.309-2.424.202-2.02.722-3.982 1.068-5.945.087-.519.058-.721-.519-.693-.26.029-.779.202-.635-.404.086-.404-.087-1.097.721-.981.606.087.924-.087 1.01-.779.145-1.097.347-1.212 1.934-1.472zm6.089 2.107l1.038.115c.924.202.924.289.635 1.183-.144.433-.346.433-.721.289-.491-.202-1.039-.289-1.587-.144-.577.144-.981.462-1.155 1.01-.202.606 0 1.125.433 1.558.26.26.577.462.895.664 1.212.837 1.847 1.933 1.529 3.434-.288 1.356-1.356 2.251-2.914 2.482-.895.144-1.761 0-2.626-.346-.722-.288-.289-.692-.202-1.068.115-.462.375-.433.721-.26.548.289 1.154.375 1.789.317.693-.087 1.183-.404 1.443-1.068.231-.664.116-1.27-.346-1.76-.231-.231-.491-.433-.75-.635-1.53-1.039-2.049-2.164-1.645-3.549.433-1.385 1.702-2.193 3.463-2.222zm-16.132 10.503c-.981 0-.981 0-.808-.895l1.443-7.907.087-.923c.029-.404.144-.635.635-.606 1.01.029 1.067.058.865 1.068-.028.173-.144.346 0 .433.231.144.318-.116.433-.26.606-.808 1.299-1.414 2.395-1.414.404 0 .578.086.404.519-.057.202-.115.404-.115.635-.029.433-.202.577-.664.606-.75.029-1.298.491-1.731 1.068-.952 1.212-1.212 2.684-1.472 4.127l-.49 2.713c-.145.664-.376 1.01-.982.837z"/></g></g><defs><clipPath id="A"><path fill="#fff" d="M0 0h147.689v26H0z"/></clipPath></defs></svg>
